X:499
T: Gechang baiqiuen
N: C1918
O: China, Hebei Laiyuan
S: IV, 36]
R: Xiaodiao]
M: 2/4
L: 1/16
K: Bb
c2c2d2b2 | c8 |
f2fdc2d2 | f8 |
c2d2c4 | c2f2d2ff | c4d2g2 | b4b2g2 | f2f2g2d2 | c8

